icons/desktop/16/svg/settings-16.svg

<svg width="16" height="16" viewBox="0 0 16 16" fill="none" xmlns="http://www.w3.org/2000/svg">
<path fill-rule="evenodd" clip-rule="evenodd" d="M7.99957 4.99967C9.65649 4.99967 10.9994 6.34279 10.9996 7.99967C10.9996 9.65667 9.65657 10.9997 7.99957 10.9997C6.34274 10.9995 4.99957 9.65655 4.99957 7.99967C4.99971 6.34291 6.34282 4.99987 7.99957 4.99967ZM7.99957 6.49967C7.17282 6.49987 6.49971 7.17291 6.49957 7.99967C6.49957 8.82655 7.17274 9.49948 7.99957 9.49967C8.82657 9.49967 9.49957 8.82667 9.49957 7.99967C9.49944 7.17279 8.82649 6.49967 7.99957 6.49967Z" fill="black"/>
<path fill-rule="evenodd" clip-rule="evenodd" d="M6.57477 0.336589C7.47108 -0.112221 8.52707 -0.112172 9.4234 0.336589C9.82212 0.536712 10.1284 0.880204 10.2818 1.2946L10.3384 1.47624L10.6216 2.611C10.8762 2.7382 11.1152 2.88312 11.3404 3.03874L12.4781 2.71257H12.48C12.9704 2.57309 13.4975 2.65356 13.9244 2.93522C14.7611 3.48722 15.2878 4.40004 15.3482 5.40006L15.3502 5.59049C15.3291 6.03379 15.1391 6.45385 14.8179 6.76432L13.9732 7.58073C13.9881 7.71211 13.9996 7.85532 13.9996 7.99967C13.9996 8.14398 13.9871 8.28726 13.9722 8.41862L14.8179 9.23698C15.1864 9.59313 15.3777 10.0912 15.3482 10.5983V10.6003C15.2879 11.6009 14.7601 12.5152 13.9244 13.0671C13.4976 13.3487 12.9704 13.4291 12.48 13.2897L12.4781 13.2887L11.3394 12.9626C11.1146 13.1178 10.8759 13.2621 10.6216 13.3893L10.3384 14.5251C10.2142 15.0203 9.88011 15.4369 9.42438 15.6657C8.58407 16.0863 7.60247 16.113 6.74469 15.7448L6.57477 15.6657C6.1761 15.4656 5.8698 15.122 5.71637 14.7077L5.66071 14.5251L5.37653 13.3893C5.12244 13.2622 4.8832 13.1182 4.65778 12.9626L3.52008 13.2887L3.5191 13.2897C3.09005 13.4118 2.63329 13.3648 2.23981 13.1628L2.07477 13.0671C1.23852 12.5143 0.710509 11.6015 0.649964 10.6012L0.648987 10.4098C0.670191 9.9669 0.859409 9.54729 1.18024 9.23698L2.02594 8.41862C2.01116 8.28756 1.9986 8.14456 1.9986 8.00065C1.99861 7.85667 2.01017 7.71378 2.02496 7.58268L1.18024 6.7653C0.811822 6.40908 0.620334 5.9102 0.649964 5.40299C0.710141 4.40223 1.23898 3.48718 2.07477 2.93522L2.23981 2.83854C2.63327 2.63655 3.0901 2.59048 3.5191 2.71257L4.65875 3.03874C4.88356 2.88347 5.12231 2.73917 5.37653 2.61198L5.66071 1.47624C5.78498 0.981152 6.1191 0.565295 6.57477 0.336589ZM8.75153 1.67643C8.27821 1.43979 7.71989 1.43961 7.24664 1.67643C7.18053 1.70971 7.13354 1.77077 7.11578 1.84147L6.74469 3.32585C6.68674 3.55769 6.52161 3.74823 6.30035 3.83854C5.93785 3.98651 5.59733 4.19702 5.26325 4.45475C5.07451 4.60036 4.82737 4.64734 4.59821 4.58171L3.107 4.15495C3.03605 4.1353 2.96144 4.14725 2.90094 4.18717C2.45899 4.47922 2.17986 4.96282 2.14801 5.49186C2.14402 5.56605 2.17214 5.6367 2.22321 5.6862L3.34039 6.76628C3.51176 6.93197 3.59386 7.16969 3.56207 7.40592C3.52622 7.67192 3.49863 7.82786 3.4986 8.00065C3.4986 8.17347 3.52623 8.32947 3.56207 8.59538C3.59391 8.83161 3.51172 9.0693 3.34039 9.23503L2.22321 10.3151C2.17024 10.3663 2.14271 10.4367 2.14703 10.5085L2.14801 10.5094C2.17984 11.0387 2.45852 11.522 2.90192 11.8151C2.94758 11.8452 3.00025 11.8594 3.05426 11.8561L3.10895 11.8464L4.59821 11.4196C4.8277 11.3539 5.0754 11.4015 5.26422 11.5475C5.59524 11.8036 5.93684 12.0141 6.30133 12.1637C6.52197 12.2543 6.68688 12.445 6.74469 12.6764L7.11578 14.1608L7.13434 14.2116C7.15817 14.2593 7.19685 14.299 7.24567 14.3239C7.66011 14.5314 8.14025 14.5577 8.57086 14.402L8.7525 14.3239C8.81808 14.2906 8.86562 14.2311 8.88336 14.1608L9.25446 12.6764L9.28082 12.5915C9.35421 12.3983 9.50508 12.2428 9.69879 12.1637C10.0613 12.0158 10.4019 11.8052 10.7359 11.5475L10.8091 11.4967C10.9858 11.3912 11.1997 11.3624 11.4 11.4196L12.8892 11.8464C12.9605 11.8666 13.0363 11.8551 13.0972 11.8151L13.2554 11.6969C13.6057 11.4014 13.8233 10.9726 13.8511 10.5094C13.855 10.4354 13.827 10.3645 13.7759 10.3151L12.6588 9.23503C12.5126 9.09373 12.4302 8.89924 12.4302 8.69596C12.4302 8.66246 12.4326 8.62761 12.4371 8.5944C12.4729 8.32851 12.4996 8.17249 12.4996 7.99967C12.4995 7.82687 12.4729 7.67095 12.4371 7.40495C12.4053 7.16869 12.4874 6.931 12.6588 6.7653L13.7759 5.6862C13.8287 5.63495 13.8556 5.56361 13.8511 5.49186C13.8193 4.96255 13.5408 4.47905 13.0982 4.18717C13.0373 4.14696 12.9616 4.13372 12.8902 4.15397L12.8912 4.15495L11.4 4.58171C11.1706 4.64728 10.9236 4.59977 10.7349 4.45378C10.403 4.19704 10.0616 3.98667 9.69879 3.83854C9.47755 3.74824 9.31243 3.55766 9.25446 3.32585L8.88336 1.84147L8.86481 1.79069C8.84074 1.74231 8.80123 1.7014 8.75153 1.67643Z" fill="black"/>
</svg>

<!-- This Source Code Form is subject to the terms of the Mozilla Public
   - License, v. 2.0. If a copy of the MPL was not distributed with this
   - file, You can obtain one at http://mozilla.org/MPL/2.0/. -->
<svg xmlns="http://www.w3.org/2000/svg" width="16" height="16" fill="context-fill" fill-opacity="context-fill-opacity" viewBox="0 0 16 16">
    <path fill-rule="evenodd" d="M8 5a3 3 0 1 1 0 6 3 3 0 0 1 0-6m0 1.5c-.827 0-1.5.673-1.5 1.5S7.173 9.5 8 9.5 9.5 8.827 9.5 8 8.826 6.5 8 6.5" clip-rule="evenodd" />
    <path fill-rule="evenodd" d="M6.575.337a3.18 3.18 0 0 1 2.848 0c.4.2.705.543.859.958l.056.181.284 1.135q.38.192.718.428l1.138-.326h.002a1.75 1.75 0 0 1 1.444.222A3.18 3.18 0 0 1 15.348 5.4l.002.19a1.75 1.75 0 0 1-.532 1.174l-.845.817c.015.131.027.274.027.419s-.013.287-.028.419l.846.818c.368.356.56.854.53 1.361v.002c-.06 1-.588 1.915-1.424 2.467a1.75 1.75 0 0 1-1.444.223l-.002-.001-1.139-.326c-.224.155-.463.3-.717.426l-.284 1.136a1.75 1.75 0 0 1-.914 1.14c-.84.421-1.822.448-2.68.08l-.17-.08a1.76 1.76 0 0 1-.858-.957l-.055-.183-.284-1.136a6 6 0 0 1-.72-.426l-1.137.326a1.75 1.75 0 0 1-1.28-.126l-.165-.096A3.19 3.19 0 0 1 .65 10.601l-.001-.191c.021-.443.21-.863.531-1.173l.846-.818A4 4 0 0 1 1.999 8c0-.144.011-.287.026-.418l-.845-.818a1.75 1.75 0 0 1-.53-1.362c.06-1 .589-1.916 1.425-2.468l.165-.096a1.75 1.75 0 0 1 1.28-.126l1.139.326q.337-.235.718-.427l.284-1.136c.124-.495.458-.91.914-1.14m2.177 1.34a1.68 1.68 0 0 0-1.505 0 .25.25 0 0 0-.131.164l-.371 1.485a.75.75 0 0 1-.445.513 4.5 4.5 0 0 0-1.037.616.75.75 0 0 1-.665.127l-1.491-.427a.25.25 0 0 0-.206.032 1.69 1.69 0 0 0-.753 1.305.25.25 0 0 0 .075.194l1.117 1.08a.75.75 0 0 1 .222.64c-.036.266-.063.422-.063.595 0 .172.027.328.063.594a.75.75 0 0 1-.222.64l-1.117 1.08a.25.25 0 0 0-.076.194h.001c.032.53.31 1.013.754 1.306q.07.045.152.041l.055-.01 1.49-.426a.75.75 0 0 1 .665.127c.331.257.673.467 1.037.617.221.09.386.281.444.512l.37 1.485.02.05a.25.25 0 0 0 .11.113c.415.207.895.234 1.326.078l.181-.078a.25.25 0 0 0 .131-.163l.371-1.485.027-.085a.75.75 0 0 1 .418-.427 4.5 4.5 0 0 0 1.037-.617l.073-.05a.75.75 0 0 1 .591-.077l1.49.426c.07.02.146.01.207-.03l.158-.12c.35-.295.568-.723.596-1.187a.25.25 0 0 0-.075-.194l-1.117-1.08a.75.75 0 0 1-.222-.64c.036-.266.063-.423.063-.595 0-.173-.027-.329-.063-.595a.75.75 0 0 1 .222-.64l1.117-1.079a.25.25 0 0 0 .075-.194 1.68 1.68 0 0 0-.753-1.305.25.25 0 0 0-.208-.033l.001.001-1.491.427a.75.75 0 0 1-.665-.128 4.5 4.5 0 0 0-1.036-.615.75.75 0 0 1-.445-.513l-.37-1.485-.02-.05a.26.26 0 0 0-.112-.115" clip-rule="evenodd" />
</svg>
